src/assets/vector4.svg

<svg width="113" height="125" viewBox="0 0 113 125" fill="none" xmlns="http://www.w3.org/2000/svg">
<g filter="url(#filter0_d_294_29979)">
<path fill-rule="evenodd" clip-rule="evenodd" d="M70.8217 0.515768C70.2991 0.982885 55.6652 26.8694 54.8754 28.7239C54.6009 29.3682 54.6027 29.5945 54.8877 30.2724C55.0714 30.7089 55.4337 31.179 55.6932 31.3172C56.5015 31.7469 57.7018 31.6188 58.2356 31.0455C58.5031 30.7584 62.2006 24.2967 66.4525 16.6868C74.412 2.44112 74.6622 1.90946 73.8838 0.901859C73.1122 -0.0969173 71.7054 -0.274292 70.8217 0.515768ZM102.956 0.491623C100.986 1.46068 100.984 1.46741 98.9249 13.9616C97.9085 20.1289 97.0768 25.2811 97.0768 25.4114C97.0768 25.5574 98.08 25.6493 99.7049 25.6521C102.025 25.6563 102.51 25.7301 103.84 26.2827C104.669 26.6267 105.387 26.8684 105.437 26.8197C105.486 26.7707 106.359 21.6445 107.378 15.4278C109.429 2.90731 109.421 3.08282 107.992 1.46486C106.648 -0.0562884 104.797 -0.414056 102.956 0.491623ZM53.9762 4.15473C53.7192 4.26199 53.3354 4.545 53.1231 4.78344C52.9107 5.02187 50.309 9.5628 47.3413 14.8743C41.8017 24.7887 41.4887 25.5014 42.2449 26.4805C43.0165 27.4792 44.4228 27.6566 45.308 26.8666C45.6299 26.5794 48.3787 21.8848 51.4168 16.4344C56.1787 7.89074 56.9194 6.43065 56.7893 5.84211C56.5127 4.59074 55.0433 3.70921 53.9762 4.15473ZM75.887 18.6844C75.6106 18.8768 73.5801 22.2664 71.3751 26.2167C67.9478 32.3568 67.3876 33.4981 67.5161 34.0797C67.8805 35.7281 69.8954 36.4139 71.016 35.271C71.5594 34.7168 78.0285 23.3502 78.8879 21.4397C79.2397 20.6575 79.2717 20.3478 79.0617 19.7495C78.6305 18.5197 76.9389 17.9523 75.887 18.6844ZM97.6609 30.0354C97.1469 30.197 96.3984 30.499 95.9976 30.7066C94.8767 31.2875 93.1817 33.3059 92.7827 34.535C92.5871 35.1377 92.0477 37.9815 91.5843 40.8545C91.1208 43.7276 90.5751 46.5946 90.3716 47.2256C89.8649 48.7953 88.224 50.4058 86.5773 50.9496C84.039 51.7875 84.7732 52.0373 58.0003 41.2279C44.5385 35.7926 32.8172 31.134 31.9531 30.8754C27.0195 29.3983 20.7016 30.1004 16.0313 32.6442C12.7321 34.4412 9.6176 37.4429 7.82933 40.549C6.62485 42.6411 5.25941 46.5229 4.53687 49.909C4.09792 51.9672 4.01452 53.1062 4.00144 57.2222C3.98812 61.4135 4.06031 62.4636 4.51678 64.7045C5.51708 69.6166 7.50766 74.3331 9.94699 77.5704C11.3706 79.4593 14.3638 82.3117 15.9199 83.2617L17.1094 83.9881L15.8661 81.517C13.1023 76.0244 12.3802 70.4369 13.6712 64.5354C15.8192 54.7162 23.4077 47.3004 33.6523 45.0092C34.505 44.8183 36.472 44.6967 38.6749 44.6983C41.6165 44.7006 42.6773 44.7963 44.3298 45.2088C51.8714 47.0914 57.7618 51.5681 61.1835 58.0179C63.2908 61.99 64.1381 65.4232 64.1381 69.9913C64.1381 76.9257 61.7264 82.8357 56.8194 87.9261L55.4206 89.3772H57.1722C59.7599 89.3772 65.8647 88.761 69.8996 88.0926C76.1246 87.0611 79.6988 85.9636 84.5788 83.5846C94.5971 78.701 100.862 71.2956 102.66 62.2138C102.925 60.873 104.011 55.0225 105.074 49.2125C107.357 36.7252 107.412 35.9259 106.153 33.6381C104.445 30.5355 100.881 29.0234 97.6609 30.0354ZM22.6728 34.6829C19.1747 35.4871 16.1306 37.2184 13.7957 39.7313C10.8891 42.8598 10.0577 45.171 11.4194 46.335C12.7122 47.4402 14.0342 46.8936 15.2676 44.7445C17.8904 40.1736 23.817 37.6374 28.9802 38.8765C31.0481 39.3726 31.8255 39.3248 32.4948 38.6594C33.2452 37.9139 33.2662 36.6876 32.5427 35.8895C32.2535 35.5705 31.4389 35.1375 30.7322 34.9271C28.9711 34.4027 24.4837 34.2668 22.6728 34.6829ZM35.6831 48.9813C33.6047 49.2719 31.8484 49.8103 29.6406 50.8342C27.1996 51.966 25.8667 52.8756 23.873 54.7703C19.5707 58.8592 17.3355 64.0741 17.3498 69.9913C17.364 75.8644 19.4018 80.8462 23.4638 84.9389C27.2702 88.774 32.0956 90.9134 37.5069 91.1658C41.9377 91.3722 45.593 90.5255 49.3559 88.4206C51.8653 87.0172 55.6914 83.2134 57.1054 80.7165C60.3338 75.0159 60.8627 68.1619 58.5252 62.3141C56.9942 58.4838 53.9442 54.687 50.6174 52.4696C46.352 49.6267 40.6288 48.2899 35.6831 48.9813ZM37.1882 55.8608C36.3131 56.7305 36.35 57.8495 37.284 58.7777C37.8968 59.3867 38.1142 59.4659 38.8471 59.3477C39.3152 59.2722 39.8918 59.018 40.1284 58.7828C40.3651 58.5477 40.6209 57.9747 40.6968 57.5094C40.8157 56.7811 40.736 56.565 40.1233 55.956C39.1893 55.0278 38.0633 54.9911 37.1882 55.8608ZM95.1036 59.2537C94.6859 59.6186 94.3724 60.3005 94.0631 61.5173C93.1599 65.0685 91.5759 67.7289 88.6382 70.6279C84.7515 74.4635 78.8706 77.4757 72.1976 79.0488C69.4072 79.7065 68.6711 80.2972 68.8953 81.6983C69.046 82.6402 69.9695 83.5732 70.7506 83.5728C71.5886 83.5723 75.78 82.4986 78.0219 81.7101C88.4135 78.0556 95.5577 71.5125 97.8805 63.5227C98.6598 60.8415 98.6479 60.2569 97.7957 59.4099C96.9554 58.5748 95.9473 58.5163 95.1036 59.2537ZM29.1675 59.6627C28.4448 59.952 27.8647 61.1618 28.0488 61.9958C28.2467 62.8905 29.1988 63.6068 30.1903 63.6068C32.057 63.6068 32.8662 61.2424 31.4151 60.0289C30.6729 59.4081 30.055 59.3075 29.1675 59.6627ZM46.1167 59.7798C45.2425 60.2518 44.9017 61.3406 45.3182 62.331C46.1975 64.4228 49.1989 63.8438 49.1798 61.5858C49.1651 59.8429 47.6522 58.9509 46.1167 59.7798ZM20.7705 63.8371C18.7056 64.665 19.3378 67.7858 21.5701 67.7858C23.8455 67.7858 24.433 64.6051 22.2946 63.864C21.4424 63.5689 21.4391 63.5687 20.7705 63.8371ZM37.8173 63.9453C35.7156 64.8537 36.3624 67.7858 38.6644 67.7858C40.9245 67.7858 41.5417 64.7911 39.4598 63.9265C38.5546 63.5506 38.7347 63.5485 37.8173 63.9453ZM54.7938 64.0152C52.828 64.993 53.52 67.7858 55.7283 67.7858C56.7702 67.7858 57.4899 67.2462 57.7333 66.2825C58.179 64.5173 56.4562 63.1882 54.7938 64.0152ZM28.8043 68.4785C27.6297 69.3968 27.8103 71.1874 29.147 71.8744C30.5379 72.5893 32.1339 71.5605 32.1339 69.9495C32.1339 68.2979 30.1541 67.4233 28.8043 68.4785ZM45.9539 68.3896C45.1806 68.928 44.9153 69.7824 45.2283 70.7252C45.9508 72.9008 49.1872 72.3539 49.1872 70.0563C49.1872 68.3625 47.352 67.4164 45.9539 68.3896ZM20.5703 72.4774C19.8277 72.9006 19.534 73.4132 19.534 74.2864C19.534 76.1166 21.5433 77.0197 22.9466 75.8201C23.4661 75.3759 23.5967 75.0681 23.5967 74.2864C23.5967 73.5047 23.4661 73.1968 22.9466 72.7527C22.2481 72.1558 21.3228 72.0486 20.5703 72.4774ZM37.2553 72.8755C36.7892 73.3387 36.5724 73.7868 36.5724 74.2864C36.5724 75.2852 37.6699 76.3759 38.6749 76.3759C39.6799 76.3759 40.7774 75.2852 40.7774 74.2864C40.7774 73.2876 39.6799 72.1969 38.6749 72.1969C38.1722 72.1969 37.7213 72.4124 37.2553 72.8755ZM54.3086 72.8755C53.8426 73.3387 53.6258 73.7868 53.6258 74.2864C53.6258 75.2852 54.7233 76.3759 55.7283 76.3759C56.231 76.3759 56.6819 76.1604 57.1479 75.6973C57.6139 75.2341 57.8307 74.786 57.8307 74.2864C57.8307 73.7868 57.6139 73.3387 57.1479 72.8755C56.6819 72.4124 56.231 72.1969 55.7283 72.1969C55.2255 72.1969 54.7747 72.4124 54.3086 72.8755ZM29.0708 76.7146C28.316 77.1339 27.8507 78.1907 28.0586 79.0137C28.4305 80.4868 30.4827 81.0561 31.5604 79.9849C33.1877 78.3679 31.0796 75.5988 29.0708 76.7146ZM46.1109 76.7216C45.3353 77.152 44.8788 78.3967 45.1942 79.2211C46.0116 81.3579 49.1872 80.7975 49.1872 78.5165C49.1872 76.9561 47.4817 75.961 46.1109 76.7216ZM37.1459 81.357C36.0998 82.3964 36.4689 84.0562 37.876 84.6405C40.0132 85.5281 41.7298 82.8317 40.0296 81.2579C39.293 80.5758 37.8832 80.624 37.1459 81.357ZM33.8039 97.2313L35.5212 99.8132L38.6114 99.819L41.7013 99.8246L43.3606 97.3669C44.2731 96.015 44.9779 94.8672 44.9265 94.8161C44.8751 94.765 44.0163 94.8786 43.0181 95.0685C40.1354 95.6166 36.2468 95.5186 32.8695 94.8131L32.0867 94.6496L33.8039 97.2313ZM36.5724 109.037V114.071L37.5342 115.538C38.0633 116.345 38.5628 117.003 38.6438 117C38.7251 116.997 39.2384 116.319 39.7845 115.493L40.7774 113.991V108.997V104.004H38.6749H36.5724V109.037Z" fill="#00AACB"/>
</g>
<defs>
<filter id="filter0_d_294_29979" x="0" y="0" width="113" height="125" filterUnits="userSpaceOnUse" color-interpolation-filters="sRGB">
<feFlood flood-opacity="0" result="BackgroundImageFix"/>
<feColorMatrix in="SourceAlpha" type="matrix" values="0 0 0 0 0 0 0 0 0 0 0 0 0 0 0 0 0 0 127 0" result="hardAlpha"/>
<feOffset dy="4"/>
<feGaussianBlur stdDeviation="2"/>
<feComposite in2="hardAlpha" operator="out"/>
<feColorMatrix type="matrix" values="0 0 0 0 0 0 0 0 0 0 0 0 0 0 0 0 0 0 0.25 0"/>
<feBlend mode="normal" in2="BackgroundImageFix" result="effect1_dropShadow_294_29979"/>
<feBlend mode="normal" in="SourceGraphic" in2="effect1_dropShadow_294_29979" result="shape"/>
</filter>
</defs>
</svg>

<svg xmlns="http://www.w3.org/2000/svg" width="113" height="125" fill="none" viewBox="0 0 113 125"><g filter="url(#a)"><path fill="#00aacb" fill-rule="evenodd" d="M70.822.516c-.523.467-15.157 26.353-15.947 28.208-.274.644-.272.87.013 1.548.183.437.546.907.805 1.045.809.43 2.009.302 2.543-.271.267-.288 3.965-6.75 8.217-14.36C74.412 2.442 74.663 1.91 73.883.903c-.77-.999-2.178-1.176-3.061-.386m32.134-.024c-1.97.969-1.972.975-4.031 13.47-1.016 6.167-1.848 11.32-1.848 11.45 0 .145 1.003.237 2.628.24 2.32.004 2.805.078 4.135.63.829.345 1.547.586 1.597.538.049-.05.922-5.175 1.941-11.392 2.051-12.52 2.043-12.345.614-13.963-1.344-1.521-3.195-1.88-5.036-.973m-48.98 3.663c-.257.107-.64.39-.853.628-.212.239-2.814 4.78-5.782 10.091-5.54 9.915-5.852 10.627-5.096 11.606.772 1 2.178 1.177 3.063.387.322-.288 3.07-4.982 6.109-10.433 4.762-8.543 5.502-10.003 5.372-10.592-.276-1.251-1.746-2.133-2.813-1.687m21.911 14.53c-.276.192-2.307 3.581-4.512 7.532-3.427 6.14-3.987 7.281-3.859 7.863.364 1.648 2.38 2.334 3.5 1.191.543-.554 7.012-11.92 7.872-13.831.352-.783.384-1.092.174-1.69-.431-1.23-2.123-1.798-3.175-1.066m21.774 11.35c-.514.162-1.263.464-1.663.672-1.121.58-2.816 2.599-3.215 3.828-.196.603-.735 3.447-1.199 6.32-.463 2.873-1.009 5.74-1.212 6.37-.507 1.57-2.148 3.18-3.795 3.725-2.538.837-1.804 1.087-28.577-9.722-13.461-5.435-25.183-10.094-26.047-10.353-4.933-1.477-11.251-.775-15.922 1.77-3.299 1.796-6.413 4.798-8.202 7.904-1.204 2.092-2.57 5.974-3.292 9.36-.44 2.058-.522 3.197-.536 7.313-.013 4.191.06 5.242.516 7.482 1 4.913 2.99 9.63 5.43 12.866 1.424 1.89 4.417 4.742 5.973 5.692l1.19.726-1.244-2.471c-2.764-5.493-3.486-11.08-2.195-16.982C15.82 54.716 23.408 47.3 33.652 45.01c.853-.19 2.82-.312 5.023-.31 2.942.002 4.002.097 5.655.51 7.541 1.882 13.432 6.36 16.854 12.809 2.107 3.972 2.954 7.405 2.954 11.973 0 6.935-2.412 12.845-7.319 17.935l-1.398 1.451h1.751c2.588 0 8.693-.616 12.728-1.284 6.225-1.032 9.799-2.13 14.679-4.508 10.018-4.884 16.283-12.29 18.081-21.371.265-1.341 1.351-7.191 2.414-13.001 2.283-12.488 2.338-13.287 1.079-15.575-1.708-3.102-5.272-4.615-8.492-3.603m-74.988 4.648c-3.498.804-6.542 2.535-8.877 5.048-2.907 3.129-3.738 5.44-2.377 6.604 1.293 1.105 2.615.559 3.849-1.59 2.622-4.571 8.549-7.108 13.712-5.868 2.068.496 2.846.448 3.515-.218.75-.745.771-1.971.048-2.77-.29-.319-1.104-.751-1.81-.962-1.762-.524-6.25-.66-8.06-.244m13.01 14.298c-2.078.29-3.835.83-6.042 1.853-2.441 1.132-3.774 2.042-5.768 3.936-4.302 4.09-6.538 9.304-6.523 15.221q.021 8.809 6.114 14.948c3.806 3.835 8.632 5.974 14.043 6.227 4.43.206 8.086-.64 11.849-2.745 2.51-1.404 6.335-5.208 7.75-7.705 3.228-5.7 3.757-12.554 1.42-18.402-1.532-3.83-4.582-7.627-7.909-9.844-4.265-2.843-9.988-4.18-14.934-3.489m1.505 6.88c-.875.87-.838 1.989.096 2.917.613.609.83.688 1.563.57.468-.076 1.045-.33 1.281-.565.237-.235.493-.808.569-1.274.119-.728.039-.944-.574-1.553-.934-.928-2.06-.965-2.935-.095m57.916 3.393c-.418.365-.732 1.047-1.04 2.263-.904 3.551-2.488 6.212-5.426 9.11-3.887 3.837-9.767 6.849-16.44 8.422-2.79.657-3.527 1.248-3.303 2.65.151.941 1.075 1.874 1.856 1.874.838 0 5.029-1.074 7.27-1.863 10.392-3.654 17.537-10.197 19.86-18.187.779-2.681.767-3.266-.085-4.113-.84-.835-1.849-.894-2.692-.156m-65.936.409c-.723.289-1.303 1.499-1.12 2.333.199.895 1.15 1.61 2.142 1.61 1.867 0 2.676-2.364 1.225-3.577-.742-.62-1.36-.722-2.247-.366m16.949.117c-.874.472-1.215 1.56-.799 2.551.88 2.092 3.88 1.513 3.862-.745-.015-1.743-1.528-2.635-3.063-1.806M20.77 63.837c-2.065.828-1.433 3.949.8 3.949 2.274 0 2.862-3.18.724-3.922-.853-.295-.856-.295-1.525-.027m17.046.108c-2.101.909-1.455 3.84.847 3.84 2.26 0 2.878-2.994.796-3.858-.905-.376-.725-.379-1.643.018m16.977.07c-1.966.978-1.274 3.77.934 3.77 1.042 0 1.762-.539 2.005-1.502.446-1.766-1.277-3.095-2.94-2.268m-25.99 4.463c-1.174.919-.994 2.71.343 3.396 1.39.715 2.987-.313 2.987-1.924 0-1.652-1.98-2.527-3.33-1.472m17.15-.088c-.773.538-1.039 1.392-.726 2.335.723 2.176 3.96 1.629 3.96-.669 0-1.694-1.836-2.64-3.234-1.666M20.57 72.477c-.742.424-1.036.936-1.036 1.81 0 1.83 2.01 2.733 3.413 1.533.52-.444.65-.752.65-1.534 0-.781-.13-1.09-.65-1.533-.699-.597-1.624-.704-2.377-.276m16.685.398c-.466.464-.683.912-.683 1.411 0 1 1.098 2.09 2.103 2.09s2.102-1.09 2.102-2.09c0-.998-1.097-2.09-2.102-2.09-.503 0-.954.216-1.42.68m17.054 0c-.466.464-.683.912-.683 1.411 0 1 1.097 2.09 2.102 2.09.503 0 .954-.216 1.42-.679s.683-.911.683-1.41c0-.5-.217-.948-.683-1.412s-.917-.678-1.42-.678-.953.215-1.42.678m-25.238 3.84c-.755.419-1.22 1.476-1.012 2.299.371 1.473 2.424 2.042 3.501.97 1.628-1.616-.48-4.385-2.49-3.27m17.04.007c-.776.43-1.232 1.675-.917 2.5.818 2.136 3.993 1.576 3.993-.706 0-1.56-1.705-2.555-3.076-1.794m-8.965 4.635c-1.046 1.04-.677 2.7.73 3.284 2.137.887 3.854-1.81 2.154-3.383-.737-.682-2.147-.634-2.884.099m-3.342 15.874 1.717 2.582 3.09.006 3.09.006 1.66-2.458c.912-1.352 1.617-2.5 1.566-2.55-.052-.052-.91.062-1.909.252-2.883.548-6.771.45-10.148-.256l-.783-.163zm2.768 11.806v5.034l.962 1.467c.53.807 1.029 1.465 1.11 1.462s.594-.681 1.14-1.507l.993-1.502v-9.987H36.57z" clip-rule="evenodd"/></g><defs><filter id="a" width="113" height="125" x="0" y="0" color-interpolation-filters="sRGB" filterUnits="userSpaceOnUse"><feFlood flood-opacity="0" result="BackgroundImageFix"/><feColorMatrix in="SourceAlpha" result="hardAlpha" values="0 0 0 0 0 0 0 0 0 0 0 0 0 0 0 0 0 0 127 0"/><feOffset dy="4"/><feGaussianBlur stdDeviation="2"/><feComposite in2="hardAlpha" operator="out"/><feColorMatrix values="0 0 0 0 0 0 0 0 0 0 0 0 0 0 0 0 0 0 0.25 0"/><feBlend in2="BackgroundImageFix" result="effect1_dropShadow_294_29979"/><feBlend in="SourceGraphic" in2="effect1_dropShadow_294_29979" result="shape"/></filter></defs></svg>
